svgs/solid/user-vneck-hair-long.svg

<svg xmlns="http://www.w3.org/2000/svg" viewBox="0 0 448 512"><!--! Font Awesome Pro 6.2.0 by @fontawesome - https://fontawesome.com License - https://fontawesome.com/license (Commercial License) Copyright 2022 Fonticons, Inc. --><path d="M304 128c0-11.4-2.4-22.2-6.7-32H296c-20.5 0-38.7-9.6-50.4-24.5C231.9 95.7 205.8 112 176 112H145.6c-1 5.2-1.6 10.5-1.6 16v16c0 44.2 35.8 80 80 80s80-35.8 80-80V128zM96 128C96 57.3 153.3 0 224 0s128 57.3 128 128v11c0 33.9 13.5 66.5 37.5 90.5l3.9 3.9c4.2 4.2 6.6 10 6.6 16c0 12.5-10.1 22.6-22.6 22.6H224 70.6C58.1 272 48 261.9 48 249.4c0-6 2.4-11.8 6.6-16l3.9-3.9c24-24 37.5-56.6 37.5-90.5V128zM211.2 398.9c6.4 8.5 19.2 8.5 25.6 0l59-78.7c84.8 4.7 152.2 75 152.2 161c0 17-13.8 30.7-30.7 30.7H30.7C13.8 512 0 498.2 0 481.3c0-86 67.3-156.3 152.2-161l59 78.7z"/></svg>

<svg xmlns="http://www.w3.org/2000/svg" viewBox="0 0 448 512"><!--! Font Awesome Pro 6.1.2 by @fontawesome - https://fontawesome.com License - https://fontawesome.com/license (Commercial License) Copyright 2022 Fonticons, Inc. --><path d="M96 128C96 57.31 153.3 0 224 0C294.7 0 352 57.31 352 128V138.1C352 172.9 365.5 205.5 389.5 229.5L393.4 233.4C397.6 237.6 400 243.4 400 249.4C400 261.9 389.9 272 377.4 272H70.63C58.13 272 47.1 261.9 47.1 249.4C47.1 243.4 50.38 237.6 54.63 233.4L58.51 229.5C82.51 205.5 95.1 172.9 95.1 138.1L96 128zM297.3 96H296C275.5 96 257.3 86.4 245.6 71.46C231.9 95.67 205.8 112 176 112H145.6C144.6 117.2 144 122.5 144 128V144C144 188.2 179.8 224 224 224C268.2 224 304 188.2 304 144V128C304 116.6 301.6 105.8 297.3 96zM295.8 320.3C380.7 324.1 448 395.3 448 481.3C448 498.2 434.2 512 417.3 512H30.72C13.75 512 0 498.2 0 481.3C0 395.3 67.34 324.1 152.2 320.3L224 416L295.8 320.3z"/></svg>
